X:110
M:6/8
L:1/8
Q:3/8=120
K:G
|:b3 bag|a2 f g2 e|d3 dcB|c2 A B2 G|b3 bag|a2 f g2 e|d3 dcB|c2 A G3:|

